src/img/location_icon.svg

<svg width="16" height="20" viewBox="0 0 16 20" fill="none" xmlns="http://www.w3.org/2000/svg">
<path fill-rule="evenodd" clip-rule="evenodd" d="M7.8 1.60001C6.14505 1.60001 4.55788 2.2743 3.38765 3.47454C2.21743 4.67478 1.56 6.30266 1.56 8.00006C1.56 10.4785 3.13228 12.8835 4.85624 14.7499C5.70228 15.6659 6.55096 16.4157 7.18901 16.9368C7.42647 17.1307 7.63388 17.2923 7.8 17.4182C7.96612 17.2923 8.17353 17.1307 8.41099 16.9368C9.04904 16.4157 9.89772 15.6659 10.7438 14.7499C12.4677 12.8835 14.04 10.4785 14.04 8.00006C14.04 6.30266 13.3826 4.67478 12.2123 3.47454C11.0421 2.2743 9.45495 1.60001 7.8 1.60001ZM7.8 18.4001C7.36733 19.0658 7.36714 19.0656 7.36691 19.0655L7.36468 19.064L7.35948 19.0604L7.34161 19.048C7.32642 19.0374 7.30476 19.0222 7.27706 19.0025C7.22165 18.9632 7.14204 18.9058 7.04168 18.8315C6.84103 18.6829 6.55696 18.4659 6.21724 18.1885C5.53904 17.6346 4.63272 16.8344 3.72376 15.8503C1.93773 13.9167 0 11.1216 0 8.00006C4.64916e-08 5.87831 0.821783 3.84347 2.28457 2.34316C3.74735 0.842861 5.73131 0 7.8 0C9.86869 0 11.8527 0.842861 13.3154 2.34316C14.7782 3.84347 15.6 5.87831 15.6 8.00006C15.6 11.1216 13.6623 13.9167 11.8762 15.8503C10.9673 16.8344 10.061 17.6346 9.38276 18.1885C9.04304 18.4659 8.75898 18.6829 8.55832 18.8315C8.45796 18.9058 8.37835 18.9632 8.32295 19.0025C8.29524 19.0222 8.27358 19.0374 8.25839 19.048L8.24052 19.0604L8.23532 19.064L8.23367 19.0651C8.23345 19.0652 8.23267 19.0658 7.8 18.4001ZM7.8 18.4001L8.23267 19.0658C7.97067 19.2449 7.62891 19.2446 7.36691 19.0655L7.8 18.4001Z" fill="#454754"/>
<path fill-rule="evenodd" clip-rule="evenodd" d="M7.7998 6.29883C6.97138 6.29883 6.2998 6.9704 6.2998 7.79883C6.2998 8.62726 6.97138 9.29883 7.7998 9.29883C8.62823 9.29883 9.2998 8.62726 9.2998 7.79883C9.2998 6.9704 8.62823 6.29883 7.7998 6.29883ZM4.7998 7.79883C4.7998 6.14197 6.14295 4.79883 7.7998 4.79883C9.45666 4.79883 10.7998 6.14197 10.7998 7.79883C10.7998 9.45568 9.45666 10.7988 7.7998 10.7988C6.14295 10.7988 4.7998 9.45568 4.7998 7.79883Z" fill="#454754"/>
</svg>

<svg fill="none" xmlns="http://www.w3.org/2000/svg" viewBox="0 0 16 20"><path fill-rule="evenodd" clip-rule="evenodd" d="M7.8 1.6a6.162 6.162 0 00-4.412 1.875A6.484 6.484 0 001.56 8c0 2.479 1.572 4.883 3.296 6.75A23.167 23.167 0 007.8 17.418a23.17 23.17 0 002.944-2.668c1.724-1.867 3.296-4.271 3.296-6.75a6.484 6.484 0 00-1.828-4.525A6.162 6.162 0 007.8 1.6zm0 16.8l-.433.666-.002-.002-.006-.004-.017-.012a8.827 8.827 0 01-.3-.216 24.745 24.745 0 01-3.318-2.981C1.938 13.916 0 11.12 0 8c0-2.123.822-4.158 2.285-5.658A7.702 7.702 0 017.8 0c2.069 0 4.053.843 5.515 2.343A8.105 8.105 0 0115.6 8c0 3.122-1.938 5.917-3.724 7.85a24.735 24.735 0 01-3.318 2.981 14.608 14.608 0 01-.3.217l-.017.012-.006.004-.001.001L7.8 18.4zm0 0l.433.666a.765.765 0 01-.866 0L7.8 18.4z" fill="#454754"/><path fill-rule="evenodd" clip-rule="evenodd" d="M7.8 6.299a1.5 1.5 0 100 3 1.5 1.5 0 000-3zm-3 1.5a3 3 0 116 0 3 3 0 01-6 0z" fill="#454754"/></svg>
